X: 14714
T: Gan Ainm
R: jig
M: 6/8
K: Dmajor
def gfe|A3 A2 B|AFD GFG|BAG FGA|
def gfe|A3 A2 B|AFD GFE|D3 D3||
cee c2 e|d2 f d2 f|aaa fec|A3 A2 d|
c2 e c2 e|d2 f d2 f|gfe ecA|d3 d3||

